dist/svgs/devui-icons/op/connect-code.svg

<?xml version="1.0" encoding="UTF-8"?>
<svg width="16px" height="16px" viewBox="0 0 16 16" version="1.1" xmlns="http://www.w3.org/2000/svg" xmlns:xlink="http://www.w3.org/1999/xlink">
    <title>操作/代码关联工作想</title>
    <desc>Created with Sketch.</desc>
    <g id="操作/代码关联工作想" stroke="none" stroke-width="1" fill="none" fill-rule="evenodd">
        <path d="M12,13 L11.0555556,13 C10.7794132,13 10.5555556,13.2238576 10.5555556,13.5 C10.5555556,13.7761424 10.7794132,14 11.0555556,14 L13.9444444,14 C13.9632227,14 13.9817592,13.9989648 14,13.9969484 C14.2499972,13.9693126 14.4444444,13.7573641 14.4444444,13.5 C14.4444444,13.2426359 14.2499972,13.0306874 14,13.0030516 C13.9817592,13.0010352 13.9632227,13 13.9444444,13 L13,13 L13,11 L13.5,11 C13.6712329,11 13.838445,11.0172151 14,11.0500091 C15.1411202,11.2816442 16,12.290521 16,13.5 C16,14.709479 15.1411202,15.7183558 14,15.9499909 L14,16 L11.5,16 C10.1192881,16 9,14.8807119 9,13.5 C9,13.3287671 9.01721513,13.161555 9.05000906,13 L9,13 L9.94444444,13 C10.2205868,13 10.4444444,12.7761424 10.4444444,12.5 C10.4444444,12.2238576 10.2205868,12 9.94444444,12 L7.05555556,12 C6.77941318,12 6.55555556,12.2238576 6.55555556,12.5 C6.55555556,12.7761424 6.77941318,13 7.05555556,13 L8,13 L8,15 L7.5,15 C6.11928813,15 5,13.8807119 5,12.5 C5,11.1192881 6.11928813,10 7.5,10 L9.5,10 C10.8807119,10 12,11.1192881 12,12.5 C12,12.6712329 11.9827849,12.838445 11.9499909,13 L12,13 Z M3,4 L4,4 L4,5 L3,5 L3,4 Z M3,7 L4,7 L4,8 L3,8 L3,7 Z M5,4 L11,4 L11,5 L5,5 L5,4 Z M5,7 L11,7 L11,8 L5,8 L5,7 Z M5,16 L1,16 C0.44771525,16 0,15.5522847 0,15 L0,1 C0,0.44771525 0.44771525,0 1,0 L13,0 C13.5522847,0 14,0.44771525 14,1 L14,10 L12,10 L12,2 L2,2 L2,14 L5,14 L5,16 Z" id="形状" fill="#293040"></path>
    </g>
</svg>

<svg xmlns="http://www.w3.org/2000/svg" viewBox="0 0 16 16"><path fill-rule="evenodd" d="M12 13h-.944a.5.5 0 100 1h2.888a.5.5 0 000-1H13v-2h.5a2.5 2.5 0 01.5 4.95V16h-2.5a2.5 2.5 0 01-2.45-3H9h.944a.5.5 0 100-1H7.056a.5.5 0 100 1H8v2h-.5a2.5 2.5 0 110-5h2a2.5 2.5 0 012.45 3H12zM3 4h1v1H3V4zm0 3h1v1H3V7zm2-3h6v1H5V4zm0 3h6v1H5V7zm0 9H1a1 1 0 01-1-1V1a1 1 0 011-1h12a1 1 0 011 1v9h-2V2H2v12h3v2z"/></svg>
